X:1
T:We Three Kings of Orient Are
T:We Three Kings of Orient Are
T:Jon Henry Hopkins, Jr.
C:Jon Henry Hopkins, Jr.
%%score 1 2 3
L:1/8
Q:1/4=100
M:3/8
K:G
V:1 treble nm="Flute" snm="Fl."
V:2 treble nm="Flute" snm="Fl."
V:3 treble nm="Flute" snm="Fl."
V:1
 b2 a | g2 e | f>gf | e(e/f/g/a/) | b2 a | g2 e | f>gf | !breath!e3 | g2 g | a2 a | b2 b | d'>c'b | %12
 a>ba | g2 Pf | !breath!e3 || f2 a | g2 g | g2 !~(!d | !~)!g2 e | !breath!g3 | g2 g | g2 d | g2 e | %23
 !breath!g3 | g2 g | a2 b | c'2 b | a2 b | g2 g | g2 !~(!d | !~)!g2 e | g3 || b2 a | g>ab | %34
 c'2 Pb | a>bc' | b>ag | a>gPf | e3 :| %39
V:2
 g2 f | e2 e | ^d>dd | e(e/f/g/a/) | g2 f | e2 e | ^d>dd | !breath!e3 | e2 e | f2 f | g2 g | b>ag | %12
 e>ee | e2 P^d | !breath!e3 || c3 | B2 B | B2 !~(!B | !~)!e2 G | !breath!B3 | B2 B | B2 B | e2 G | %23
 !breath!B3 | B2 B | f2 d | e2 d | f2 d | B2 B | B2 !~(!B | !~)!e2 G | B3 || d2 c | B>cd | e2 Pd | %35
 c>de | g>fe | f>ePB | G3 :| %39
V:3
 E2 E | E2 E | B>BB | E(E/F/G/A/) | E2 E | E2 E | B>BB | !breath!E3 | E2 E | D2 D | G2 G | G2 G | %12
 c>cc | B2 PB | !breath!E3 || D3 | G2 G | G2 G | C2 C | !breath!G3 | G2 G | G2 G | C2 C | %23
 !breath!G3 | E2 E | D2 G | C2 G | D2 G | G2 G | G2 G | C2 C | !breath!G3 || G3 | G3 | c2 Pc | %35
 c>BA | B3 | B2 B | E3 :| %39

